imgs/icono.svg

<?xml version="1.0" encoding="UTF-8" standalone="no"?>
<!-- Created with Inkscape (http://www.inkscape.org/) -->

<svg
   xmlns:dc="http://purl.org/dc/elements/1.1/"
   xmlns:cc="http://creativecommons.org/ns#"
   xmlns:rdf="http://www.w3.org/1999/02/22-rdf-syntax-ns#"
   xmlns:svg="http://www.w3.org/2000/svg"
   xmlns="http://www.w3.org/2000/svg"
   xmlns:sodipodi="http://sodipodi.sourceforge.net/DTD/sodipodi-0.dtd"
   xmlns:inkscape="http://www.inkscape.org/namespaces/inkscape"
   width="210mm"
   height="297mm"
   viewBox="0 0 210 297"
   version="1.1"
   id="svg8"
   sodipodi:docname="icono.svg"
   inkscape:version="0.92.4 (unknown)">
  <defs
     id="defs2" />
  <sodipodi:namedview
     id="base"
     pagecolor="#ffffff"
     bordercolor="#666666"
     borderopacity="1.0"
     inkscape:pageopacity="0.0"
     inkscape:pageshadow="2"
     inkscape:zoom="1.5317947"
     inkscape:cx="377.62867"
     inkscape:cy="679.27742"
     inkscape:document-units="mm"
     inkscape:current-layer="layer1"
     showgrid="false"
     inkscape:window-width="1920"
     inkscape:window-height="1019"
     inkscape:window-x="0"
     inkscape:window-y="0"
     inkscape:window-maximized="1" />
  <metadata
     id="metadata5">
    <rdf:RDF>
      <cc:Work
         rdf:about="">
        <dc:format>image/svg+xml</dc:format>
        <dc:type
           rdf:resource="http://purl.org/dc/dcmitype/StillImage" />
        <dc:title></dc:title>
      </cc:Work>
    </rdf:RDF>
  </metadata>
  <g
     inkscape:label="Layer 1"
     inkscape:groupmode="layer"
     id="layer1">
    <path
       style="font-style:normal;font-variant:normal;font-weight:normal;font-stretch:normal;font-size:10.58333302px;line-height:1.25;font-family:Loma;-inkscape-font-specification:Loma;letter-spacing:0px;word-spacing:0px;fill:#ffffff;fill-opacity:1;stroke:#241f1c;stroke-width:0.37795276;stroke-miterlimit:4;stroke-dasharray:none;stroke-opacity:1"
       d="M 396.74609 425.00391 C 376.45627 425.00391 356.84082 430.20278 342.80664 438.82031 C 341.34186 438.0378 339.83451 437.26923 338.26562 436.51172 C 325.38826 430.2939 310.34478 427.67104 292.85938 426.60352 C 268.15131 425.09492 228.3657 437.03922 205.07617 446.16406 L 209.69141 471.32227 C 241.51604 454.76514 276.92034 448.64405 296.39844 450.68359 C 308.46298 451.94725 315.46272 454.14508 323.53711 457.6875 C 314.45545 472.00134 312.51972 489.1079 319.55469 503.13281 C 321.20703 506.4269 323.03376 509.3559 325.04492 512.00977 C 324.60283 512.22743 324.16228 512.44915 323.7168 512.65625 C 317.77052 515.41863 311.06915 517.00995 304.40234 517.76562 C 298.80057 518.40055 294.84223 517.8044 287.46875 517.22852 C 280.19539 516.65962 272.85146 515.49485 265.98438 513.46094 C 259.26354 511.42842 253.19917 508.81498 247.79297 505.62109 C 242.53274 502.42751 237.27329 498.84703 232.01367 494.87891 C 226.89968 490.91082 221.49328 486.94274 215.79492 482.97461 C 210.09625 479.10339 204.03412 475.47341 197.60547 472.08594 C 191.32275 468.79544 183.65105 466.08649 174.5918 463.95703 C 165.53318 461.82704 155.74282 460.66919 145.22266 460.47266 L 128.78711 460.18359 L 128.78711 486.31445 C 140.47601 486.31445 151.14024 487.32933 160.7832 489.36328 C 170.57307 491.4927 178.82963 494.20166 185.55078 497.49219 C 192.27162 500.78268 198.55415 504.413 204.39844 508.38086 C 210.38929 512.44589 216.23328 516.46156 221.93164 520.42969 C 227.77593 524.49446 233.84031 528.1724 240.12305 531.46289 C 246.40608 534.75342 253.9302 537.41527 262.69727 539.44922 C 271.46402 541.57838 281.17962 542.64258 291.8457 542.64258 C 312.13572 542.64258 331.7529 537.44385 345.78711 528.82617 C 347.25152 529.60847 348.75771 530.37746 350.32617 531.13477 C 363.20356 537.35254 378.24704 539.97544 395.73242 541.04297 C 420.44052 542.55157 460.2261 530.6073 483.51562 521.48242 L 478.90234 496.32422 C 454.64382 508.94497 437.72264 512.75116 415.82617 517.0918 C 409.38397 518.37574 402.69041 518.74083 396.08984 518.57227 C 389.43085 518.41216 382.72903 517.65911 376.29688 516.13086 C 371.98332 515.10616 367.70897 513.75893 363.75781 511.91016 C 373.93859 497.22069 376.39687 479.1822 369.03906 464.51367 C 367.38631 461.21874 365.55864 458.28916 363.54688 455.63477 C 363.98897 455.4171 364.42952 455.19538 364.875 454.98828 C 370.82128 452.2259 377.5226 450.63658 384.18945 449.88086 C 389.7912 449.24597 393.74957 449.84208 401.12305 450.41797 C 408.39645 450.98686 415.74032 452.14968 422.60742 454.18359 C 429.32829 456.21611 435.39263 458.82955 440.79883 462.02344 C 446.05902 465.21702 451.31853 468.79945 456.57812 472.76758 C 461.69209 476.73567 467.09852 480.70375 472.79688 484.67188 C 478.49553 488.54309 484.55961 492.17115 490.98828 495.55859 C 497.27099 498.84913 504.94074 501.56003 514 503.68945 C 523.05866 505.82171 534.12215 506.72795 544.25 506.39648 C 549.5125 506.22512 559.80664 503.96875 559.80664 503.96875 L 559.80664 479.7793 C 547.67731 481.72058 538.33243 481.48317 528.68945 479.44922 C 518.89961 477.3198 509.76215 473.44483 503.04102 470.1543 C 496.32015 466.86376 490.03764 463.23345 484.19336 459.26562 C 478.20251 455.20059 472.35851 451.18492 466.66016 447.2168 C 460.81583 443.15207 454.75146 439.47413 448.46875 436.18359 C 442.1857 432.89306 434.66164 430.23313 425.89453 428.19922 C 417.1278 426.07006 407.41219 425.00391 396.74609 425.00391 z M 583.32227 455.18359 A 18.162986 17.140406 78.822355 0 0 566.52539 473.30859 A 18.162986 17.140406 78.822355 0 0 584.08008 491.43555 A 18.162986 17.140406 78.822355 0 0 600.87695 473.30859 A 18.162986 17.140406 78.822355 0 0 583.32227 455.18359 z M 106.36523 468.64258 A 18.162986 17.140406 78.822355 0 0 89.568359 486.76758 A 18.162986 17.140406 78.822355 0 0 107.12305 504.89453 A 18.162986 17.140406 78.822355 0 0 123.91992 486.76758 A 18.162986 17.140406 78.822355 0 0 106.36523 468.64258 z M 344.07617 474.4375 C 345.81292 477.80704 346.88656 481.43269 346.77734 485.02539 C 346.68184 488.19218 345.6389 491.30397 344.08789 494.25195 C 342.44722 490.52079 341.56575 486.51445 341.81445 482.61914 C 341.99279 479.82553 342.8373 477.07522 344.07617 474.4375 z "
       transform="scale(0.26458333)"
       id="path858" />
  </g>
</svg>

<?xml version="1.0" encoding="UTF-8"?>
<!-- Created with Inkscape (http://www.inkscape.org/) -->
<svg width="135.39mm" height="31.225mm" version="1.1" viewBox="0 0 135.39 31.225" xmlns="http://www.w3.org/2000/svg" xmlns:cc="http://creativecommons.org/ns#" xmlns:dc="http://purl.org/dc/elements/1.1/" xmlns:rdf="http://www.w3.org/1999/02/22-rdf-syntax-ns#">
 <metadata>
  <rdf:RDF>
   <cc:Work rdf:about="">
    <dc:format>image/svg+xml</dc:format>
    <dc:type rdf:resource="http://purl.org/dc/dcmitype/StillImage"/>
    <dc:title/>
   </cc:Work>
  </rdf:RDF>
 </metadata>
 <g transform="translate(-23.647 -112.4)">
  <path transform="scale(.26458)" d="m396.75 425c-20.29 0-39.905 5.1989-53.939 13.816-1.4648-0.78251-2.9721-1.5511-4.541-2.3086-12.877-6.2178-27.921-8.8407-45.406-9.9082-24.708-1.5086-64.494 10.436-87.783 19.561l4.6152 25.158c31.825-16.557 67.229-22.678 86.707-20.639 12.065 1.2637 19.064 3.4615 27.139 7.0039-9.0817 14.314-11.017 31.42-3.9824 45.445 1.6523 3.2941 3.4791 6.2231 5.4902 8.877-0.44209 0.21766-0.88264 0.43938-1.3281 0.64648-5.9463 2.7624-12.648 4.3537-19.314 5.1094-5.6018 0.63493-9.5601 0.0388-16.934-0.5371-7.2734-0.5689-14.617-1.7337-21.484-3.7676-6.7208-2.0325-12.785-4.646-18.191-7.8398-5.2602-3.1936-10.52-6.7741-15.779-10.742-5.114-3.9681-10.52-7.9362-16.219-11.904-5.6987-3.8712-11.761-7.5012-18.189-10.889-6.2827-3.2905-13.954-5.9994-23.014-8.1289-9.0586-2.13-18.849-3.2878-29.369-3.4844l-16.436-0.28907v26.131c11.689 0 22.353 1.0149 31.996 3.0488 9.7899 2.1294 18.046 4.8384 24.768 8.1289 6.7208 3.2905 13.003 6.9208 18.848 10.889 5.9908 4.065 11.835 8.0807 17.533 12.049 5.8443 4.0648 11.909 7.7427 18.191 11.033 6.283 3.2905 13.807 5.9524 22.574 7.9863 8.7668 2.1292 18.482 3.1934 29.148 3.1934 20.29 0 39.907-5.1987 53.941-13.816 1.4644 0.7823 2.9706 1.5513 4.5391 2.3086 12.877 6.2178 27.921 8.8407 45.406 9.9082 24.708 1.5086 64.494-10.436 87.783-19.561l-4.6133-25.158c-24.259 12.621-41.18 16.427-63.076 20.768-6.4422 1.2839-13.136 1.649-19.736 1.4805-6.659-0.16011-13.361-0.91316-19.793-2.4414-4.3136-1.0247-8.5879-2.3719-12.539-4.2207 10.181-14.689 12.639-32.728 5.2812-47.396-1.6528-3.2949-3.4804-6.2245-5.4922-8.8789 0.44209-0.21767 0.88264-0.43939 1.3281-0.64649 5.9463-2.7624 12.648-4.3517 19.314-5.1074 5.6018-0.63489 9.5601-0.0388 16.934 0.53711 7.2734 0.56889 14.617 1.7317 21.484 3.7656 6.7209 2.0325 12.785 4.646 18.191 7.8398 5.2602 3.1936 10.52 6.776 15.779 10.744 5.114 3.9681 10.52 7.9362 16.219 11.904 5.6986 3.8712 11.763 7.4993 18.191 10.887 6.2827 3.2905 13.952 6.0014 23.012 8.1309 9.0587 2.1323 20.122 3.0385 30.25 2.707 5.2625-0.17136 15.557-2.4277 15.557-2.4277v-24.189c-12.129 1.9413-21.474 1.7039-31.117-0.33008-9.7898-2.1294-18.927-6.0044-25.648-9.2949-6.7209-3.2905-13.003-6.9208-18.848-10.889-5.9908-4.065-11.835-8.0807-17.533-12.049-5.8443-4.0647-11.909-7.7427-18.191-11.033-6.283-3.2905-13.807-5.9505-22.574-7.9844-8.7667-2.1292-18.482-3.1953-29.148-3.1953zm186.58 30.18a18.163 17.14 78.822 0 0-16.797 18.125 18.163 17.14 78.822 0 0 17.555 18.127 18.163 17.14 78.822 0 0 16.797-18.127 18.163 17.14 78.822 0 0-17.555-18.125zm-476.96 13.459a18.163 17.14 78.822 0 0-16.797 18.125 18.163 17.14 78.822 0 0 17.555 18.127 18.163 17.14 78.822 0 0 16.797-18.127 18.163 17.14 78.822 0 0-17.555-18.125zm237.71 5.7949c1.7368 3.3695 2.8104 6.9952 2.7012 10.588-0.0955 3.1668-1.1384 6.2786-2.6894 9.2266-1.6407-3.7312-2.5221-7.7375-2.2734-11.633 0.17834-2.7936 1.0228-5.5439 2.2617-8.1816z" fill="#fff" stroke="#241f1c" stroke-width=".37795"/>
 </g>
</svg>
